X:1
T:Title
%%score ( 1 2 ) { 3 | 4 }
L:1/8
Q:1/4=105
M:4/4
K:Eb
V:1 treble nm="Grand Piano, Soprano"
V:2 treble 
V:3 bass nm="Choir Pad, Bass"
V:4 bass 
V:1
 EF [EG]2 [EG]2 [EG]2 | [EG]2 [EG]6 | AG [DF]2 [DB]2 [DB]2- | [DB][FA] [EG]6 | %4
w: By~James~Holmes~Rosecrans,~1893 * * * *||||
 [EG][FA] [GB]2 [GB]2 [GB]2 | [GB]2 [GB]6 | [GB][EG] [DF]2 [DF]2 [E=A]2- | [EA][EF] [DB]6 | %8
w: ||||
 z2 [GB]2 [GB]>[GB] [Ac][GB] | [FA][EG] [EG]2- [EG][EF] [Ec]2- | [Ec]2 [EB]2 [EB]>[EB] [Fd][Fd] | %11
w: |||
 [Ac][AB] [Ge]6- | [Ge]2 z2 z4 |] %13
w: ||
V:2
 x8 | x8 | E2 z2 z4 | x8 | x8 | x8 | x8 | x8 | x8 | x8 | x8 | x8 | x8 |] %13
V:3
 G,A, B,2 B,2 B,2 | B,2 B,6 | CB, B,2 F,2 F,2- | F,B, B,6 | B,2[K:treble] E2 E2 E2 | E2 E6 | %6
 B,2 B,2 B,2 C2- | CC B,6 | z2[K:treble] E2 E>E E2 | B,2 C2- CC[K:bass] A,2- | A,2 G,2 G,>G, B,B, | %11
 B,B, B,6- | B,2 z2 z4 |] %13
V:4
 E,2 E,2 E,2 E,2 | E,2 E,6 | E,2 B,,2 B,,2 B,,2- | B,,D, E,6 | E,2 E,2 E,2 E,2 | E,2 E,6 | %6
 E,2 B,,2 B,,2 F,2- | F,F, B,,6 | z2 E,2 E,>E, E,2 | E,2 A,,2- A,,A,, A,,2- | %10
 A,,2 B,,2 B,,>B,, B,,B,, | z2 E,6- | E,2 z2 z4 |] %13

